svgs/thin/dolly.svg

<svg xmlns="http://www.w3.org/2000/svg" viewBox="0 0 576 512"><!--! Font Awesome Pro 6.3.0 by @fontawesome - https://fontawesome.com License - https://fontawesome.com/license (Commercial License) Copyright 2023 Fonticons, Inc. --><path d="M565.6 336.4l-254.5 79.54c-11.1-19.01-31.48-31.92-55.08-31.92c-3.365 0-6.603 .4861-9.827 .9861L138.1 39.31C130.8 15.78 109.3 0 84.66 0H8C3.594 0 0 3.594 0 8S3.594 16 8 16h76.66c17.59 0 32.94 11.28 38.19 28.06l107.9 345.1C207.1 399 192 421.6 192 448c0 35.35 28.65 64 64 64s64-28.65 64-64c0-6.037-1.104-11.76-2.666-17.3l253-79.08c4.219-1.312 6.594-5.781 5.25-10C574.3 337.4 569.9 335.1 565.6 336.4zM256 496c-26.47 0-48-21.53-48-48s21.53-48 48-48s48 21.53 48 48S282.5 496 256 496zM286.7 302.7c6.545 19.64 24.84 32.83 45.53 32.83c5.154 0 10.26-.832 15.18-2.471l131.3-43.76c12.16-4.055 22.02-12.6 27.75-24.07c5.734-11.47 6.658-24.48 2.605-36.64l-43.76-131.3c-6.545-19.64-24.84-32.83-45.53-32.83c-5.154 0-10.26 .832-15.18 2.471L273.3 110.7c-12.16 4.055-22.02 12.6-27.75 24.07C239.8 146.2 238.9 159.3 242.9 171.4L286.7 302.7zM278.4 125.9l131.3-43.76C413 81 416.4 80.47 419.8 80.47c13.4 0 25.88 8.48 30.35 21.89l43.76 131.3c5.588 16.77-3.473 34.89-20.24 40.48l-131.3 43.76C339 319 335.6 319.5 332.2 319.5c-13.4 0-25.88-8.48-30.35-21.89L258.1 166.4C252.5 149.6 261.6 131.5 278.4 125.9z"/></svg>

<svg xmlns="http://www.w3.org/2000/svg" viewBox="0 0 576 512"><!-- Font Awesome Pro 6.0.0-alpha2 by @fontawesome - https://fontawesome.com License - https://fontawesome.com/license (Commercial License) --><path d="M565.625 336.375L311.08 415.92C299.982 396.914 279.596 384 256 384C252.635 384 249.4 384.49 246.176 384.99L138.094 39.312C130.781 15.781 109.281 0 84.656 0H8C3.594 0 0 3.594 0 8S3.594 16 8 16H84.656C102.25 16 117.594 27.281 122.844 44.062L230.76 389.207C207.975 399.004 192 421.625 192 448C192 483.346 220.654 512 256 512S320 483.346 320 448C320 441.963 318.896 436.238 317.334 430.701L570.375 351.625C574.594 350.312 576.969 345.844 575.625 341.625C574.312 337.406 569.875 335.062 565.625 336.375ZM256 496C229.533 496 208 474.467 208 448S229.533 400 256 400S304 421.533 304 448S282.467 496 256 496ZM286.701 302.701C293.246 322.338 311.545 335.531 332.234 335.531C337.389 335.531 342.496 334.699 347.416 333.061L478.701 289.299C490.865 285.244 500.721 276.695 506.455 265.229C512.189 253.76 513.113 240.746 509.061 228.584L465.299 97.299C458.754 77.662 440.455 64.469 419.766 64.469C414.611 64.469 409.504 65.301 404.584 66.939L273.299 110.701C261.135 114.756 251.279 123.305 245.545 134.771C239.811 146.24 238.887 159.254 242.939 171.416L286.701 302.701ZM278.357 125.881L409.643 82.119C413 81 416.41 80.469 419.766 80.469C433.162 80.469 445.65 88.949 450.119 102.357L493.881 233.643C499.469 250.408 490.408 268.531 473.643 274.119L342.357 317.881C339 319 335.59 319.531 332.234 319.531C318.838 319.531 306.35 311.051 301.881 297.643L258.119 166.357C252.531 149.592 261.592 131.469 278.357 125.881Z"/></svg>
